public/doodles/cross.svg

<svg  viewBox="0 0 45 95" fill="none" xmlns="http://www.w3.org/2000/svg">
                      <path d="M22.6255 2.70275C22.5417 10.814 22.7241 18.6509 20.7933 26.5407C19.8 30.5996 19.0342 34.6071 17.0855 38.3475C14.3071 43.6803 9.69255 50.1326 3.62191 52.033C2.73495 52.3107 0.723348 52.4979 2.74508 51.972C4.93854 51.4014 7.40023 50.9879 9.66671 50.8863C12.9552 50.739 15.8744 52.9678 17.9783 55.2657C21.7401 59.3744 23.5308 64.7026 24.8519 70.0399C26.1734 75.3791 26.5238 80.7837 27.3367 86.2033C27.63 88.1584 27.8963 90.1191 28.0969 92.0861C28.1126 92.2397 28.3134 94.4416 28.0512 93.9846C26.5877 91.4342 26.4763 87.4934 26.1816 84.6685C25.7101 80.1484 25.9418 75.62 26.4218 71.1088C26.7566 67.9618 27.0554 64.533 28.2944 61.5717C29.7711 58.0421 33.0101 55.79 36.059 53.4161C36.059 53.4161 44.7178 49.8786 43.2816 48.2801C39.9699 44.5944 29.4963 41.7198 27.461 37.12C25.1376 31.869 24.6262 25.5307 24.4409 19.8611C24.2444 13.8479 23.8232 7.81143 24.245 1.81071" stroke="currentColor" stroke-width="1.20596" stroke-linecap="round"></path>
                    </svg>

<svg viewBox="0 0 45 95" fill="none" xmlns="http://www.w3.org/2000/svg">
    <path d="M22.625 2.703c-.083 8.111.1 15.948-1.832 23.838-.993 4.059-1.759 8.066-3.707 11.806-2.779 5.333-7.393 11.786-13.464 13.686-.887.278-2.899.465-.877-.061 2.194-.57 4.655-.984 6.922-1.086 3.288-.147 6.207 2.082 8.311 4.38 3.762 4.108 5.553 9.437 6.874 14.774 1.321 5.34 1.672 10.744 2.485 16.163.293 1.955.56 3.916.76 5.883.016.154.216 2.356-.046 1.899-1.463-2.55-1.575-6.492-1.87-9.317-.47-4.52-.24-9.048.24-13.56.336-3.146.634-6.575 1.873-9.536 1.477-3.53 4.716-5.782 7.765-8.156 0 0 8.659-3.537 7.223-5.136-3.312-3.686-13.786-6.56-15.821-11.16-2.323-5.251-2.835-11.59-3.02-17.259-.197-6.013-.618-12.05-.196-18.05" stroke="currentColor" stroke-width="1.206" stroke-linecap="round"/>
</svg>
